X:369
T:Fredins polska.
C:August Fredin
S:Samlarens egen »komposition» vid 11 år, då han en tid var spelman.
R:polska
O:Gotland
M:3/4
L:1/16
K:F
cdcB AGAB d2c2|A2cf a2fe c4|b2bg a2af g2ge|1 fefa gfed d2c2:|
[2 cbag g4 f4|:F2AB d2c=B c2c2|C2EG B2AG F4|f2cf a2fa c'3e|
[1 fefa gfed d2c2:|2 gbeg g4 f4|:a3g f2ed c2c2|b3a f2ed c4|
a3g f2ed c2^c2|d3c BAGF [C4E4]|a3g f2ed c2c2|b3a gfed c4|
B3d A3c G3B|AGFE [C4E4] F4:|

